icons/lines/receipt-disscount.svg

<svg xmlns="http://www.w3.org/2000/svg" width="24" height="24" viewBox="0 0 24 24" fill="none" stroke="currentColor" stroke-width="2" stroke-linecap="round" stroke-linejoin="round">
  <path d="M14.995 13h.01" />
  <path d="M6.73 19.7c.82-.88 2.07-.81 2.79.15l1.01 1.35c.81 1.07 2.12 1.07 2.93 0l1.01-1.35c.72-.96 1.97-1.03 2.79-.15 1.78 1.9 3.23 1.27 3.23-1.39V7.04C20.5 3.01 19.56 2 15.78 2H8.22C4.44 2 3.5 3.01 3.5 7.04V18.3c0 2.67 1.46 3.29 3.23 1.4" />
  <path d="M8.995 7.5h.01" />
  <path d="m9 13 6-6" />
</svg>

<svg xmlns="http://www.w3.org/2000/svg" width="24" height="24" viewBox="0 0 24 24" fill="none" stroke="currentColor" stroke-width="2" stroke-linecap="round" stroke-linejoin="round" >
  <path d="M6.73 19.7C7.55 18.82 8.8 18.89 9.52 19.85L10.53 21.2C11.34 22.27 12.65 22.27 13.46 21.2L14.47 19.85C15.19 18.89 16.44 18.82 17.26 19.7C19.04 21.6 20.49 20.97 20.49 18.31V7.04C20.5 3.01 19.56 2 15.78 2H8.22C4.44 2 3.5 3.01 3.5 7.04V18.3C3.5 20.97 4.96 21.59 6.73 19.7Z"/>
  <path d="M9 13L15 7"/>
  <path d="M14.9945 13H15.0035"/>
  <path d="M8.99451 7.5H9.00349"/>
  </svg>
